X:34
T:Cordal Jig, The
T:Morgan Rattler
R:jig
D:De Dannan: Anthem.
Z:id:hn-jig-34
M:6/8
K:D
BAF ~E3|FEF DFA|BAF EFA|B2A Bcd|BAF ~E3|FEF DFA|def edc|B2A Bcd:|
|:~d3 fed|~c3 ecA|~d3 fed|f2e fga|~d3 fed|~c3 ecA|dcB cBA|B2A Bcd:|
<end>
<start>
